!!!ONB: MCCC : IJB0010_03 : Extracted Monophonic Melody
!!!COM: Brahms, Johannes
!!!OPR: Cello Sonata No.1
!!!OMV: 3
!!!SCT: Op.38
!!!ODT: 1862///
**kern
*staff1
*clefF4
*k[f#]
*G:
*M4/4
=5
4B
4BB
8C#
8D#
12C#
12D#
12E
=6
12D#
12E
12F#
4BB
8C#
8D#
12C#
12D#
12E
=7
12D#
12E
12F#
4G[
8G]
8C#
4F#[
=8
12F#]
12E
12D#
12C#
12D#
12E
12D#
12AA
12GG
12FF#
12GG
12AA
=9
4GG
8r
8e
8d
8B
8c
8F#
=10
8B
8E
8r
8e
8d
8B
8c
8F#
=11
8B
8E
8r
8B
8A
8D#
8r
8A
=12
8G
8C#
8D#
8F#
8E
8G
8BB-
8C#
=13
8BB
8B
4F#
8E
8e
4C#
=14
12F#
12G#
12A#
12B
12A#
12G#
12B-
12c#
12d
12e
12d
12c#
=15
8B
8BB
4E
8B
8BB
4D#
=16
8E
8E
8G
8G
4e
32d#
32e
32d#
32e
32d#
32e
32d#
32e
=17
8e
8E
8G
8G
4e
32d
32e
32d
32e
32d
32e
32d
32e
=18
8g
8G
8e
8E
8f#
8F#
8d#
8D#
=19
8e
8E
4c
8B
8E
4G
=20
4F#
8r
8B
8A
8F#
8G
8C#
=21
8F#
8BB
8r
8B
8A
8G#
8A
8F#
=22
8G#
8C#
8r
8c#
8B
8G#
8A
8D#
=23
8G#
8C#
8r
8c#
8B
8A#
8B
8G#
=24
8B
8A#
8B
8G#
8B
8A#
8B
8F#
=25
8B
8A#
16B
16B
8c
4c
4CC[
=26
2.CC]
4c
=27
2.CC
4B-
=28
4BB-
4A
4AA
4F
=29
4FF
4F#
4BB
4F#
=30
8BB
8F#
8BB
8F#
8BB
8F#
4BB
=31
4e
4EE
8FF#
8GG
12FF#
12GG
12AA
=32
12GG
12AA
12BB
4EE
8FF#
8GG
12FF#
12GG
12AA
=33
12GG
12AA
12BB
4EE
12FF#
12GG
12AA
4DD
=34
12EE
12FF
12GG
8CC
8C
8DD#
8EE
4BB
=35
4EE
4e[
8e]
8c
12d
12c
12B
=36
12c
12B
12A
4e[
8e]
8c
12d
12c
12B
=37
12c
12B
12A
4e[
8e]
8A
4e
=38
4c
4A
4G
4E
=39
2e
2DD
=40
2CC#
2g
=41
2CC
2g
=42
2CC
2a[
=43
4a]
4f#
4e
4d
=44
4r
4D
4d[
16d]
16c
8B
=45
12c
12B
12A
4G
4g[
16g]
16f#
8e
=46
12f#
12e
12d
4r
4E
4e[
=47
12e]
12d
12c
12d
12c
12B
4A
4a[
=48
12a]
12g
12f#
12g
12e
12d
4A
4a[
=49
12a]
12g
12f#
12g
12e
12d
4A
4a[
=50
4a]
4A
2c
=51
2B-
4A
4G
=52
2B
2A
=53
12GG
12D
12B
12D
12B
12D
12GG
12D
12c
12D
12c
12D
=54
12GG
12D
12B
12GG
12E
12c
12GG
12D
12c
12D
12c
12D
=55
12GG
12D
12B
4g
4f#
4d
=56
4g
4f#
8d
8e
8d
8c#
=57
8B
8c#
4d[
8d]
8e
8d
8c#
=58
8B
8c#
4d[
8d]
8e
8d
8c#
=59
12D
12B
12D
12B
12D
12B
12D
12B
12D
12D
12B-
12D
=60
12D
12B
12D
12B-
12D
12B-
12D
12B
12D
12D
12B-
12D
=61
12D
12B
12D
8.g
16f#
8.f#
16d
8.d
16g
=62
8.g
16f#
8.f#
16d
8d
8e
8d
8c
=63
8B
8d
4b
4a
4f#
=64
4e
4d
4G
4A
=65
4D
4B[
8B]
8A#
8B
8A
=66
4D
4d[
8d]
8e
8d
8c
=67
8B
8G
4B[
8B]
8A#
8B
8A
=68
8D
8B
4d[
8d]
8e
4d[
=69
8d]
8e
4d[
8d]
8e
8d
8c
=70
8B
8A#
8B
8A
8G
8F#
8G
8G#
=71
8A
4E
8A
8D
8b-
8b
8a
=72
8d
8f#
8g
8f#
8B
8d#
8e
8d
=73
8c
8B
4A
8r
8b-
8b
8a
=74
8g
8f#
8e
8e[
8e]
4e
8A
=75
8r
8c#
4d[
8d]
8c
8B
8A
=76
12G
12A
12B
12A
12B
12c
12B
12c
12d
4r
=77
12G
12A
12B
12A
12B
12c
12B
12c
12d
4r
=78
12G#
12A
12B
12A
12B
12c
12B
12c
12d
4r
=79
2d
2g#
=80
4f#
2.F#
=81
4e
2.E
=82
4d#
2D#
4D#[
=83
4D#]
2D#
4d#
=84
4F
2F
4f
=85
4G
2G
4g
=86
4G#
2G#
4F
=87
8G
8B
8B
8d
8d
8f
8f
8g#
=88
8d
8f
8B
8d
8G#
8c
8F
8G#
=89
8D
8F
8BB
8D
8GG#
8C
8FF
8GG#
=90
8GG#
8C
8FF
8GG#
8GG#
8C
8FF#
8AA
=91
4GG
4r
2r
=92
1r
=93
1r
=94
1r
=95
8D
8DD
8FF#
8FF#
4D
4C#
=96
8r
8AA
8C#
8C#
4A
4G
=97
8r
8GG
8BB
8BB
8E
8E
8AA
8AA
=98
8D
8D
8GG
8GG
8C#
8C#
8CC#
8CC#
=99
4FF#
4r
2r
=100
1r
=101
4BB
4B[
8B]
8G
12A
12G
12F#
=102
4G
4g[
8g]
8e
12f#
12e
12d#
=103
4e
4e[
8e]
8c#
4d[
=104
12d]
12c#
12B
4c#[
8c#]
8A#
8B
8c
=105
8c#
8C#
8F
8F
4c#
4c
=106
8r
8C
8E
8E
4c
4B
=107
8r
8BB
8D#
8D#
4B
4B-
=108
8r
8BB-
8D#
8D#
4B-
4B
=109
8r
8BB
8D#
8D#
4B
4B-
=110
8r
8BB-
8D#
8D#
4.B-
8B-
=111
4.d#
8B
4.d#
8c
=112
4.e
8B
4.d#
8e
=113
4.c#
8e
4.c#
8e
=114
4.c#
8e
4.c#
8e
=115
4d#
4cc[
8cc]
8a
12b
12a
12g
=116
12f#
12g
12a
4b[
8b]
8g
12a
12g
12f#
=117
12e
12f#
12g
4a[
8a]
8f#
12g
12f#
12e
=118
12a
12g
12f#
12g
12f#
12e
12e
12d#
12c#
12c#
12d#
12e
=119
8d#
8B
4cc[
8cc]
8a
12b
12a
12g
=120
12f#
12g
12a
4b[
8b]
8g
12a
12g
12f#
=121
12e
12f#
12g
4a[
8a]
8f#
12g
12f#
12e
=122
12a
12g
12f#
12g
12f#
12e
12e
12d#
12c#
12c#
12d#
12e
=123
4d#
4b
4b-
4f#
=124
4b
4b-
8f#
8g#
8f#
8e
=125
8d#
8f#
4dd#
4cc#
4b-
=126
4g#
4f#
4B
4c#
=127
4d#
4d#[
8d#]
8c##
8d#
8c#
=128
8F#
8d#
4f#[
8f#]
8g#
8f#
8e
=129
4d#
4d#[
8d#]
8c##
8d#
8c#
=130
8F#
8d#
4f#[
8f#]
8g#
4f#[
=131
8f#]
8g#
4f#[
8f#]
8g#
8f#
8e
=132
4d#
8r
8B
8A
8F#
8G
8C#
=133
8F#
8BB
8r
8B
8A
8F#
8G
8C#
=134
8F#
8BB
8r
8F#
8E
8BB-
8r
8E
=135
8D#
8BB
8AA#
8C#
8BB
8E
8D#
8F#
=136
4E
8r
8e
8d
8B
8c
8F#
=137
8B
8E
8r
8e
8d
8B
8c
8F#
=138
8B
8E
8r
8B
8A
8D#
8r
8A
=139
8G
8C#
8D#
8F#
8E
8G
8BB-
8C#
=140
8BB
8B
4F#
8E
8e
4C#
=141
12F#
12G#
12A#
12B
12A#
12G#
12B-
12c#
12d
12e
12d
12c#
=142
8B
8BB
4E
8B
8BB
4D#
=143
8E
8E
8G
8G
4e
32d#
32e
32d#
32e
32d#
32e
32c#
32d#
=144
8e
8E
8G
8G
4e
32d
32e
32d
32e
32d
32e
32c
32d
=145
8g
8G
8e
8E
8f#
8F#
8d#
8D#
=146
8e
8E
4c
8B
8E
4G
=147
4F#
8r
8B
8A
8F#
8G
8C#
=148
8F#
8BB
8r
8B
8A
8G#
8A
8F#
=149
8G#
8C#
8r
8c#
8B
8G#
8A
8D#
=150
8G#
8C#
8r
8c#
8B
8A#
8B
8G#
=151
8B
8A#
8B
8G#
8B
8A#
8B
8F#
=152
8B
8A#
16B
16B
8c
4c
4CC[
=153
2.CC]
4c
=154
2.CC
4B-
=155
4BB-
4A
4AA
4F
=156
4FF
4F#
4BB
4F#
=157
8BB
8F#
8BB
8F#
8BB
8F#
4BB
=158
4e
4EE
8FF#
8GG
12FF#
12GG
12AA
=159
12GG
12AA
12BB
4EE
8FF#
8GG
12FF#
12GG
12AA
=160
12GG
12AA
12BB
4EE
12FF#
12GG
12AA
4DD
=161
12EE
12FF
12GG
8CC
8C
8DD#
8EE
4BB
=162
4EE
4e[
8e]
8c
12d
12c
12B
=163
12c
12B
12A
4e[
8e]
8c
12d
12c
12B
=164
12c
12B
12A
4e
12e
12c
12A
4e
=165
4c
4A
4G
4E
=166
2e
2DD
=167
2CC#
2g
=168
2CC
2g
=169
2BB
2cc#[
=170
4cc#]
4g
4f#
4e
=171
2b
4r
4e
=172
2b
4r
4B
=173
2e
4r
4E
=174
2B
2B
=175
12E
12F#
12G
12F#
12G
12A
12G
12A
12B
12F#
12G
12A
=176
12G
12A
12B
12G#
12A
12B
12A
12B
12c
12B
12c
12d
=177
12c
12d
12e
4f#[
8f#]
8d#
4e[
=178
8e]
8c#
8d
8B
8c
8A
8G
8F#
=179
4G
8r
8F#
8B
8G
8r
8F#
=180
8B
8G
8r
8G#
8e
8A
8r
8B
=181
8e
8c
8B-
8c#
8f#
8B
8G#
8B
=182
8e
8A
8F#
8G
4C
8BB
8B
=183
8c
8A
8G
8F#
8r
8A
8B
8d
=184
8e
8c
8B
8A
8r
8c#
8d
8f#
=185
2f#
2B
=186
2E
4.AA
8G#
=187
4.A
8A
4.c
8c
=188
2a
2a
=189
8g
8b
8f#
8a
8e
8g
8d#
8f#
=190
8e
8g
8d
8f
8c
8e
8B
8d
=191
8e
8g
8d
8f
8c
8e
8B
8d
=192
8c
8e
8A
8c
8G
8B
8F
8A
=193
12G
12A
12B
12F#
12G
12A
12G
12A
12B
12F#
12G
12A
=194
12G
12A
12B
12f#
12g
12a
12g
12a
12b
12f#
12g
12a
=195
12g
12a
12b
8f#
8a
8g
8b
8e
8g
=196
8c
8e
8A
8c
8F
8A
8C
8F
=197
4AA
4r
4d#
4r
=198
2.e
4r
==
*-
